lib/healthicons/icons/solid/typography/S.svg

<svg fill="none" height="48" viewBox="0 0 48 48" width="48" xmlns="http://www.w3.org/2000/svg"><path clip-rule="evenodd" d="m22 14c-2.2091 0-4 1.7909-4 4s1.7909 4 4 4h4c4.4183 0 8 3.5817 8 8s-3.5817 8-8 8h-4c-3.4864 0-6.447-2.229-7.5443-5.3335-.3681-1.0414.1778-2.1841 1.2192-2.5522 1.0415-.3681 2.1841.1778 2.5522 1.2192.5501 1.5563 2.0344 2.6665 3.7729 2.6665h4c2.2091 0 4-1.7909 4-4s-1.7909-4-4-4h-4c-4.4183 0-8-3.5817-8-8s3.5817-8 8-8h4c3.4864 0 6.447 2.229 7.5443 5.3335.3681 1.0414-.1778 2.1841-1.2192 2.5522-1.0415.3681-2.1841-.1778-2.5522-1.2192-.5501-1.5563-2.0344-2.6665-3.7729-2.6665z" fill="#333" fill-rule="evenodd"/></svg>

<svg width="48" height="48" viewBox="0 0 48 48" fill="none" xmlns="http://www.w3.org/2000/svg">
<path fill-rule="evenodd" clip-rule="evenodd" d="M22 14C19.7909 14 18 15.7909 18 18C18 20.2091 19.7909 22 22 22H26C30.4183 22 34 25.5817 34 30C34 34.4183 30.4183 38 26 38H22C18.5136 38 15.553 35.771 14.4557 32.6665C14.0876 31.6251 14.6335 30.4824 15.6749 30.1143C16.7164 29.7462 17.859 30.2921 18.2271 31.3335C18.7772 32.8898 20.2615 34 22 34H26C28.2091 34 30 32.2091 30 30C30 27.7909 28.2091 26 26 26H22C17.5817 26 14 22.4183 14 18C14 13.5817 17.5817 10 22 10H26C29.4864 10 32.447 12.229 33.5443 15.3335C33.9124 16.3749 33.3665 17.5176 32.3251 17.8857C31.2836 18.2538 30.141 17.7079 29.7729 16.6665C29.2228 15.1102 27.7385 14 26 14H22Z" fill="#333333"/>
</svg>
